svg/odontology_outline.svg

<svg width="48" height="48" viewBox="0 0 48 48" fill="none" xmlns="http://www.w3.org/2000/svg">
<path d="M34.5616 4.00192C34.5616 3.97782 32.2436 4.21342 30.0156 4.74401C29.6636 4.82771 30.3256 5.6636 29.7886 5.95299C28.8797 6.44329 28.3327 5.3209 28.0077 5.3339C26.5237 5.3932 25.8347 7.24558 23.8827 7.18938C22.0397 7.18458 21.2937 5.4588 19.9998 5.4394C19.5438 5.4325 19.1328 6.27149 18.2948 5.86709C17.9898 5.72 18.2828 4.85031 17.9748 4.76161C5.99694 1.31985 3.63597 11.4148 9.57999 23.9954C12.8729 30.5913 13.4838 39.6142 16.9998 43.9991C20.8698 24.4994 26.1157 24.5074 29.9996 43.9991C33.2626 42.6781 34.4026 33.8902 35.9746 28.0053C37.2008 27.3361 38.2236 26.3516 38.9361 25.1548C39.6485 23.9581 40.0244 22.593 40.0245 21.2024C40.0215 20.5545 39.9368 19.9095 39.7725 19.2824C43.2905 10.7245 41.5485 4.12262 34.5616 4.00162V4.00192ZM34.5696 4.51941C35.1706 4.50331 36.8946 4.56351 38.5485 5.6679C40.2375 6.86038 40.9975 8.98076 41.0175 11.5468C41.0355 13.9468 40.3515 16.3638 39.5545 18.4857L39.5285 18.5057C38.9752 17.0211 37.9784 15.7401 36.6718 14.8348C35.3652 13.9295 33.8113 13.4431 32.2186 13.4408C31.1931 13.4406 30.1777 13.6412 29.2302 14.0312C28.2828 14.4212 27.4219 14.9929 26.6967 15.7137C25.9716 16.4345 25.3964 17.2902 25.004 18.232C24.6115 19.1739 24.4096 20.1833 24.4097 21.2027C24.4096 22.2221 24.6115 23.2316 25.004 24.1734C25.3964 25.1152 25.9716 25.9709 26.6967 26.6917C27.4219 27.4125 28.2828 27.9842 29.2302 28.3742C30.1777 28.7642 31.1931 28.9648 32.2186 28.9646C33.2951 28.9633 34.3598 28.7406 35.3456 28.3106L35.3476 28.3156C34.8036 30.2766 34.0596 34.2925 33.0716 37.8475C32.4306 40.1555 31.2886 42.4804 30.3536 43.1984C29.1986 37.8465 27.2087 28.8566 23.3927 28.8606C19.9398 28.7926 17.3788 38.8365 16.7378 42.7474C16.5768 42.4704 15.0268 39.9535 13.4818 33.8995C13.0668 32.2726 12.6239 30.7816 12.1329 29.2086C11.6029 27.5116 10.9559 25.7666 10.4059 24.5177C8.7431 21.2917 6.88433 15.6248 6.95693 12.1128C6.80233 6.41349 10.6369 3.18263 17.5818 5.1815C17.7898 5.2414 17.5078 6.18109 18.2968 6.44329C19.1038 6.71138 20.0448 5.94759 20.1348 5.96079C21.1457 6.11099 22.2267 8.01087 24.4547 7.67177C25.8097 7.45447 27.7007 5.6071 27.9017 5.8222C29.0266 7.02428 30.7126 6.81628 30.4836 5.162C30.4836 5.162 33.2056 4.55601 34.5696 4.51941ZM39.5545 18.4852C39.5515 18.4802 39.5485 18.4772 39.5465 18.4722V18.4762L39.5545 18.4852ZM32.2186 14.0343C33.7213 14.0368 35.1856 14.506 36.4069 15.3763C37.6282 16.2466 38.5455 17.4744 39.0305 18.8882C39.1065 19.1092 39.1725 19.3332 39.2285 19.5632C39.2285 19.5642 39.2275 19.5652 39.2285 19.5652C39.2285 19.5659 39.2285 19.5666 39.2285 19.5672C39.2815 19.7892 39.3235 20.0172 39.3545 20.2472C39.4002 20.5636 39.4246 20.8826 39.4275 21.2022C39.4277 23.103 38.6682 24.926 37.3163 26.2702C35.9644 27.6145 34.1307 28.3698 32.2186 28.3701C31.2717 28.3702 30.334 28.1849 29.4591 27.8247C28.5842 27.4645 27.7892 26.9365 27.1196 26.2709C26.45 25.6053 25.9188 24.8151 25.5565 23.9454C25.1941 23.0757 25.0076 22.1435 25.0077 21.2022C25.0076 20.2609 25.1941 19.3287 25.5565 18.459C25.9188 17.5893 26.45 16.7991 27.1196 16.1335C27.7892 15.4679 28.5842 14.9399 29.4591 14.5797C30.334 14.2195 31.2717 14.0342 32.2186 14.0343ZM31.0306 15.3433V20.1242H26.2497V22.4052H31.0306V27.1871H33.3116V22.4052H38.0935V20.1242H33.3116V15.3433H31.0306Z" fill="#333333"/>
</svg>

<?xml version="1.0" encoding="UTF-8" standalone="no"?>
<!-- Created with Inkscape (http://www.inkscape.org/) -->
<svg id="svg8" xmlns:rdf="http://www.w3.org/1999/02/22-rdf-syntax-ns#" xmlns="http://www.w3.org/2000/svg" xmlns:osb="http://www.openswatchbook.org/uri/2009/osb" height="48" width="48" version="1.1" xmlns:cc="http://creativecommons.org/ns#" viewBox="0 0 12.7 12.7" xmlns:dc="http://purl.org/dc/elements/1.1/">
 <title id="title4753">UIO-icon</title>
 <metadata id="metadata5">
  <rdf:RDF>
   <cc:Work rdf:about="">
    <dc:format>image/svg+xml</dc:format>
    <dc:type rdf:resource="http://purl.org/dc/dcmitype/StillImage"/>
    <dc:title>UIO-icon</dc:title>
    <dc:creator>
     <cc:Agent>
      <dc:title>Joaquín Urbano</dc:title>
     </cc:Agent>
    </dc:creator>
    <dc:rights>
     <cc:Agent>
      <dc:title>GPL</dc:title>
     </cc:Agent>
    </dc:rights>
   </cc:Work>
  </rdf:RDF>
 </metadata>
 <g id="layer1" transform="translate(0,-284.3)">
  <path id="path9693-6" d="m34.562 4.002c0-0.0241-2.318 0.2115-4.546 0.7421-0.352 0.0837 0.31 0.9196-0.227 1.209-0.909 0.4903-1.456-0.6321-1.781-0.6191-1.484 0.0593-2.173 1.9117-4.125 1.8555-1.843-0.0048-2.589-1.7306-3.883-1.75-0.456-0.0069-0.867 0.8321-1.705 0.4277-0.305-0.1471-0.012-1.0168-0.32-1.1055-11.978-3.4418-14.339 6.6533-8.3949 19.234 3.2929 6.596 3.9039 15.619 7.4199 20.004 3.87-19.5 9.116-19.492 13 0 3.263-1.321 4.403-10.109 5.975-15.994a7.8074 7.7613 0 0 0 4.05 -6.803 7.8074 7.7613 0 0 0 -0.252 -1.92c3.518-8.558 1.776-15.16-5.211-15.281zm0.008 0.5175c0.601-0.0161 2.325 0.0441 3.979 1.1485 1.689 1.1925 2.449 3.3129 2.469 5.879 0.018 2.4-0.666 4.817-1.463 6.939l-0.026 0.02a7.8074 7.7613 0 0 0 -7.31 -5.065 7.8074 7.7613 0 0 0 -7.809 7.762 7.8074 7.7613 0 0 0 7.809 7.762 7.8074 7.7613 0 0 0 3.127 -0.654l0.002 0.005c-0.544 1.961-1.288 5.977-2.276 9.532-0.641 2.308-1.783 4.633-2.718 5.351-1.155-5.352-3.145-14.342-6.961-14.338-3.453-0.068-6.014 9.976-6.655 13.887-0.161-0.277-1.711-2.794-3.256-8.848-0.415-1.627-0.858-3.118-1.349-4.691-0.53-1.697-1.177-3.442-1.727-4.691-1.6628-3.226-3.5216-8.893-3.449-12.405-0.1546-5.6994 3.68-8.9303 10.625-6.9314 0.208 0.0599-0.074 0.9996 0.715 1.2618 0.807 0.2681 1.748-0.4957 1.838-0.4825 1.011 0.1502 2.092 2.0501 4.32 1.711 1.355-0.2173 3.246-2.0647 3.447-1.8496 1.125 1.2021 2.811 0.9941 2.582-0.6602 0 0 2.722-0.606 4.086-0.6426zm4.985 13.966c-0.003-0.005-0.006-0.008-0.008-0.013v0.004l0.008 0.009zm-7.336-4.451a7.2102 7.1675 0 0 1 6.812 4.854c0.076 0.221 0.142 0.445 0.198 0.675 0 0.001-0.001 0.002 0 0.002a7.2102 7.1675 0 0 1 0 0.002c0.053 0.222 0.095 0.45 0.126 0.68a7.2102 7.1675 0 0 1 0.073 0.955 7.2102 7.1675 0 0 1 -7.209 7.168 7.2102 7.1675 0 0 1 -7.211 -7.168 7.2102 7.1675 0 0 1 7.211 -7.168zm-1.188 1.309v4.781h-4.781v2.281h4.781v4.782h2.281v-4.782h4.782v-2.281h-4.782v-4.781h-2.281z" transform="matrix(.26458 0 0 .26458 0 284.3)" fill="#333"/>
 </g>
</svg>
